public/webgl/lut.CUBE
#Created by: Adobe Photoshop Export Color Lookup Plugin
TITLE "mine.png"
#LUT size
LUT_3D_SIZE 5
#data domain
#LUT data points
DOMAIN_MIN 0.000000 0.000000 0.000000
DOMAIN_MAX 0.903226 0.903226 0.903226
0.000000 0.000000 0.000000
0.228119 0.000000 0.000000
0.463135 0.000000 0.000000
0.693542 0.000000 0.000000
0.917725 0.000000 0.000000
0.007324 0.230865 0.000000
0.242767 0.231628 0.000000
0.472290 0.222351 0.000000
0.699432 0.206055 0.000000
0.920898 0.184570 0.000000
0.000000 0.465607 0.000000
0.237305 0.466217 0.000000
0.485535 0.464355 0.000000
0.711609 0.451508 0.000000
0.926392 0.438507 0.000000
0.000000 0.691711 0.000000
0.218933 0.692047 0.000000
0.477722 0.692017 0.000000
0.716522 0.687469 0.000000
0.938049 0.673553 0.000000
0.000000 0.913239 0.000000
0.196167 0.913422 0.000000
0.462677 0.913605 0.000000
0.708862 0.912201 0.000000
0.939758 0.905762 0.000000
0.000000 0.000000 0.222595
0.232117 0.000000 0.228668
0.472473 0.000000 0.219299
0.699341 0.000000 0.203613
0.921692 0.000000 0.181915
0.000000 0.230804 0.234619
0.239502 0.223907 0.228027
0.474365 0.213287 0.218903
0.703064 0.192383 0.201050
0.924194 0.164886 0.177551
0.000000 0.468933 0.153046
0.197510 0.469360 0.147064
0.491852 0.466705 0.158417
0.712738 0.448578 0.192383
0.928497 0.434082 0.179321
0.000000 0.694122 0.000000
0.170258 0.694519 0.000000
0.468811 0.694733 0.020111
0.720123 0.689331 0.091736
0.941650 0.671448 0.087341
0.000000 0.914642 0.000000
0.132050 0.914856 0.000000
0.446350 0.915161 0.000000
0.704346 0.913849 0.000000
0.940857 0.906647 0.029205
0.000000 0.000000 0.451202
0.215302 0.000000 0.456116
0.469330 0.000000 0.462494
0.709320 0.000000 0.452393
0.928650 0.000000 0.431641
0.000000 0.169342 0.462891
0.181091 0.149658 0.465576
0.481750 0.134583 0.470581
0.713135 0.137268 0.449097
0.929596 0.105103 0.429871
0.000000 0.463654 0.470642
0.099243 0.461334 0.469116
0.475403 0.448090 0.455322
0.705353 0.442352 0.449707
0.929474 0.424011 0.431641
0.000000 0.696899 0.399384
0.000000 0.696136 0.391296
0.426727 0.695953 0.381378
0.724548 0.689636 0.386078
0.940277 0.668182 0.415558
0.000000 0.917297 0.328857
0.000000 0.917542 0.325317
0.386505 0.918121 0.320831
0.686798 0.917542 0.328827
0.942749 0.908691 0.350891
0.000000 0.000000 0.675507
0.193817 0.000000 0.677979
0.443909 0.000000 0.683899
0.697601 0.000000 0.688446
0.934601 0.000000 0.679291
0.000000 0.107452 0.682678
0.130707 0.076141 0.684662
0.437927 0.000000 0.689453
0.704987 0.000000 0.693634
0.939667 0.000000 0.678253
0.000000 0.397949 0.692047
0.000000 0.389679 0.692810
0.407318 0.370209 0.695404
0.717163 0.365204 0.699463
0.942963 0.378967 0.671783
0.000000 0.688202 0.696930
0.000000 0.687775 0.696716
0.383118 0.684753 0.694061
0.701324 0.674133 0.681274
0.926575 0.669617 0.675476
0.000000 0.920563 0.642548
0.000000 0.919983 0.639313
0.304565 0.917847 0.629852
0.653381 0.917145 0.622314
0.940430 0.909637 0.624664
0.000000 0.000000 0.900726
0.150574 0.000000 0.901733
0.419189 0.000000 0.904724
0.670380 0.000000 0.909088
0.921539 0.000000 0.911438
0.000000 0.000000 0.904236
0.000000 0.000000 0.905182
0.397217 0.000000 0.907806
0.666840 0.000000 0.911835
0.925232 0.000000 0.914124
0.000000 0.342163 0.909821
0.000000 0.332153 0.910614
0.334656 0.304749 0.913025
0.650604 0.275970 0.917480
0.933716 0.274506 0.919983
0.000000 0.623840 0.915222
0.000000 0.620331 0.915405
0.239563 0.610443 0.915619
0.623596 0.598846 0.917358
0.937866 0.600861 0.920685
0.000000 0.908752 0.916718
0.000000 0.908844 0.916718
0.283722 0.908844 0.916443
0.641083 0.907684 0.914612
0.919617 0.904083 0.908295
