public/webgl/lut.CUBE
#Created by: Adobe Photoshop Export Color Lookup Plugin
TITLE "mine.png"
#LUT size
LUT_3D_SIZE 32
#data domain
DOMAIN_MIN 0.0 0.0 0.0
DOMAIN_MAX 1.0 1.0 1.0
#LUT data points
0.000000 0.000000 0.000000
0.031067 0.000336 0.000397
0.064209 0.000549 0.000671
0.096985 0.000763 0.000977
0.129944 0.000671 0.001038
0.161957 0.000336 0.000885
0.194794 0.000000 0.000244
0.228119 0.000000 0.000000
0.261475 0.000000 0.000000
0.295044 0.000000 0.000000
0.328674 0.000000 0.000000
0.362366 0.000000 0.000000
0.396027 0.000000 0.000000
0.429657 0.000000 0.000000
0.463135 0.000000 0.000000
0.496216 0.000000 0.000000
0.529205 0.000000 0.000000
0.562195 0.000000 0.000000
0.595154 0.000000 0.000000
0.628021 0.000000 0.000000
0.660858 0.000000 0.000000
0.693542 0.000000 0.000000
0.725769 0.000000 0.000000
0.757935 0.000000 0.000000
0.790009 0.000000 0.000000
0.822021 0.000000 0.000000
0.854004 0.000000 0.000000
0.885895 0.000000 0.000000
0.917725 0.000000 0.000000
0.949493 0.000000 0.000000
0.981323 0.000000 0.000000
1.000000 0.000000 0.000000
0.002350 0.031158 0.001099
0.034271 0.031738 0.001526
0.066833 0.032715 0.001648
0.098480 0.032715 0.001831
0.131256 0.032562 0.001465
0.163452 0.031830 0.000916
0.196442 0.030792 0.000000
0.229736 0.029694 0.000000
0.263000 0.028076 0.000000
0.296509 0.025757 0.000000
0.330048 0.022278 0.000000
0.363647 0.018036 0.000000
0.397247 0.012543 0.000000
0.430756 0.005859 0.000000
0.464020 0.000000 0.000000
0.497040 0.000000 0.000000
0.529999 0.000000 0.000000
0.562927 0.000000 0.000000
0.595764 0.000000 0.000000
0.628601 0.000000 0.000000
0.661377 0.000000 0.000000
0.694000 0.000000 0.000000
0.726196 0.000000 0.000000
0.758301 0.000000 0.000000
0.790375 0.000000 0.000000
0.822357 0.000000 0.000000
0.854279 0.000000 0.000000
0.886139 0.000000 0.000000
0.917969 0.000000 0.000000
0.949707 0.000000 0.000000
0.981506 0.000000 0.000000
1.000000 0.000000 0.000000
0.004242 0.064606 0.001465
0.037567 0.064819 0.001923
0.068817 0.064911 0.002563
0.100403 0.064972 0.002563
0.132385 0.064789 0.002197
0.165100 0.064453 0.001312
0.198059 0.063843 0.000366
0.231384 0.062988 0.000000
0.264526 0.061615 0.000000
0.297943 0.059509 0.000000
0.331390 0.056671 0.000000
0.364899 0.052979 0.000000
0.398468 0.047638 0.000000
0.431793 0.042480 0.000000
0.464966 0.035980 0.000000
0.497925 0.029724 0.000000
0.530823 0.023041 0.000000
0.563660 0.014862 0.000000
0.596436 0.007416 0.000000
0.629211 0.000000 0.000000
0.661957 0.000000 0.000000
0.694519 0.000000 0.000000
0.726654 0.000000 0.000000
0.758728 0.000000 0.000000
0.790771 0.000000 0.000000
0.822693 0.000000 0.000000
0.854614 0.000000 0.000000
0.886444 0.000000 0.000000
0.918213 0.000000 0.000000
0.949951 0.000000 0.000000
0.981720 0.000000 0.000000
1.000000 0.000000 0.000000
0.006195 0.097260 0.001068
0.040131 0.097473 0.001404
0.071289 0.097595 0.002106
0.102600 0.097504 0.002960
0.134674 0.097565 0.002411
0.167328 0.097382 0.001160
0.200165 0.097168 0.000793
0.233276 0.096527 0.000000
0.266357 0.095337 0.000000
0.299652 0.093658 0.000000
0.333069 0.091553 0.000000
0.366516 0.088379 0.000000
0.399811 0.085693 0.000000
0.433075 0.081818 0.000000
0.466187 0.077728 0.000000
0.499054 0.073639 0.000000
0.531891 0.068359 0.000000
0.564606 0.063232 0.000000
0.597351 0.057465 0.000000
0.630066 0.050598 0.000000
0.662720 0.043121 0.000000
0.695221 0.033813 0.000000
0.727295 0.024841 0.000000
0.759308 0.014618 0.000000
0.791290 0.004700 0.000000
0.823181 0.000000 0.000000
0.855042 0.000000 0.000000
0.886810 0.000000 0.000000
0.918579 0.000000 0.000000
0.950256 0.000000 0.000000
0.982025 0.000000 0.000000
1.000000 0.000000 0.000000
0.008820 0.129364 0.000244
0.042816 0.129608 0.000549
0.073303 0.129822 0.001007
0.104767 0.130096 0.001678
0.136810 0.130402 0.002106
0.169983 0.130981 0.000793
0.203217 0.130768 0.000000
0.235718 0.130035 0.000000
0.268402 0.129150 0.000000
0.301605 0.127747 0.000000
0.334930 0.125702 0.000000
0.368103 0.123962 0.000000
0.401367 0.121338 0.000000
0.434601 0.118408 0.000000
0.467621 0.115326 0.000000
0.500427 0.111908 0.000000
0.533112 0.108582 0.000000
0.565765 0.105133 0.000000
0.598450 0.101105 0.000000
0.631073 0.096924 0.000000
0.663696 0.092194 0.000000
0.696106 0.087189 0.000000
0.728119 0.081482 0.000000
0.760040 0.075500 0.000000
0.791962 0.068420 0.000000
0.823792 0.061005 0.000000
0.855591 0.052338 0.000000
0.887329 0.042206 0.000000
0.919037 0.030914 0.000000
0.950684 0.019379 0.000000
0.982422 0.007629 0.000000
1.000000 0.000000 0.000000
0.010834 0.163055 0.000000
0.045502 0.163239 0.000000
0.075806 0.163422 0.000000
0.107330 0.163666 0.000000
0.139526 0.163910 0.000000
0.172119 0.164215 0.000000
0.205505 0.164581 0.000000
0.238922 0.164032 0.000000
0.271484 0.162933 0.000000
0.303986 0.161713 0.000000
0.336731 0.160400 0.000000
0.369873 0.158722 0.000000
0.403107 0.156464 0.000000
0.436249 0.154022 0.000000
0.469177 0.151398 0.000000
0.501862 0.148743 0.000000
0.534454 0.146179 0.000000
0.567078 0.143250 0.000000
0.599670 0.140228 0.000000
0.632263 0.136993 0.000000
0.664825 0.133514 0.000000
0.697113 0.129730 0.000000
0.729034 0.125793 0.000000
0.760895 0.121460 0.000000
0.792725 0.117065 0.000000
0.824524 0.112152 0.000000
0.856262 0.107025 0.000000
0.887939 0.101532 0.000000
0.919586 0.095642 0.000000
0.951172 0.089355 0.000000
0.982880 0.082550 0.000000
1.000000 0.075195 0.000000
0.010803 0.196808 0.000000
0.046204 0.196991 0.000000
0.076935 0.197144 0.000000
0.108917 0.197357 0.000000
0.141571 0.197571 0.000000
0.174408 0.197723 0.000000
0.207336 0.197876 0.000000
0.240875 0.197998 0.000000
0.274597 0.197357 0.000000
0.307465 0.196014 0.000000
0.339783 0.194611 0.000000
0.371918 0.193207 0.000000
0.404877 0.191376 0.000000
0.437897 0.189362 0.000000
0.470764 0.187012 0.000000
0.503326 0.184814 0.000000
0.535889 0.182465 0.000000
0.568451 0.180023 0.000000
0.600983 0.177460 0.000000
0.633545 0.174713 0.000000
0.666107 0.171844 0.000000
0.698242 0.168762 0.000000
0.730072 0.165497 0.000000
0.761841 0.162231 0.000000
0.793640 0.158630 0.000000
0.825348 0.154999 0.000000
0.856995 0.151123 0.000000
0.888611 0.147095 0.000000
0.920197 0.142944 0.000000
0.951752 0.138550 0.000000
0.983429 0.134033 0.000000
1.000000 0.129272 0.000000
0.007324 0.230865 0.000000
0.043884 0.230988 0.000000
0.076050 0.231140 0.000000
0.108948 0.231293 0.000000
0.142395 0.231476 0.000000
0.175995 0.231567 0.000000
0.209442 0.231598 0.000000
0.242767 0.231628 0.000000
0.276337 0.231506 0.000000
0.310211 0.230713 0.000000
0.343414 0.229187 0.000000
0.375549 0.227509 0.000000
0.407623 0.225861 0.000000
0.439575 0.224426 0.000000
0.472290 0.222351 0.000000
0.504822 0.220398 0.000000
0.537384 0.218231 0.000000
0.569885 0.216064 0.000000
0.602417 0.213715 0.000000
0.634918 0.211334 0.000000
0.667450 0.208801 0.000000
0.699432 0.206055 0.000000
0.731171 0.203339 0.000000
0.762878 0.200409 0.000000
0.794556 0.197479 0.000000
0.826202 0.194366 0.000000
0.857819 0.191193 0.000000
0.889374 0.187988 0.000000
0.920898 0.184570 0.000000
0.952423 0.181122 0.000000
0.984039 0.177551 0.000000
1.000000 0.173889 0.000000
0.002686 0.264832 0.000000
0.039948 0.264954 0.000000
0.073822 0.265076 0.000000
0.107849 0.265228 0.000000
0.142151 0.265381 0.000000
0.176483 0.265503 0.000000
0.210632 0.265533 0.000000
0.244476 0.265472 0.000000
0.278137 0.265381 0.000000
0.311829 0.265015 0.000000
0.345703 0.264069 0.000000
0.379242 0.262451 0.000000
0.411285 0.260559 0.000000
0.443054 0.258728 0.000000
0.474487 0.257172 0.000000
0.506348 0.255615 0.000000
0.538879 0.253693 0.000000
0.571381 0.251617 0.000000
0.603851 0.249512 0.000000
0.636353 0.247284 0.000000
0.668823 0.244995 0.000000
0.700623 0.242523 0.000000
0.732330 0.239960 0.000000
0.763947 0.237396 0.000000
0.795563 0.234711 0.000000
0.827148 0.231995 0.000000
0.858673 0.229279 0.000000
0.890167 0.226440 0.000000
0.921631 0.223541 0.000000
0.953094 0.220581 0.000000
0.984711 0.217560 0.000000
1.000000 0.214508 0.000000
0.000000 0.298859 0.000000
0.032440 0.298981 0.000000
0.069214 0.299072 0.000000
0.105011 0.299225 0.000000
0.140503 0.299347 0.000000
0.175812 0.299438 0.000000
0.210785 0.299500 0.000000
0.245331 0.299438 0.000000
0.279449 0.299286 0.000000
0.313293 0.299011 0.000000
0.347076 0.298492 0.000000
0.380951 0.297455 0.000000
0.414734 0.295776 0.000000
0.446716 0.293610 0.000000
0.478058 0.291687 0.000000
0.509369 0.290009 0.000000
0.540680 0.288666 0.000000
0.572876 0.286926 0.000000
0.605347 0.284973 0.000000
0.637817 0.282867 0.000000
0.670197 0.280762 0.000000
0.701904 0.278381 0.000000
0.733490 0.275970 0.000000
0.765045 0.273560 0.000000
0.796600 0.271088 0.000000
0.828094 0.268646 0.000000
0.859558 0.266113 0.000000
0.891022 0.263550 0.000000
0.922424 0.260956 0.000000
0.953827 0.258331 0.000000
0.985382 0.255676 0.000000
1.000000 0.253021 0.000000
0.000000 0.332825 0.000000
0.019806 0.332886 0.000000
0.060699 0.332977 0.000000
0.099640 0.333099 0.000000
0.136902 0.333221 0.000000
0.173401 0.333344 0.000000
0.209381 0.333405 0.000000
0.244904 0.333405 0.000000
0.279938 0.333252 0.000000
0.314362 0.332947 0.000000
0.348328 0.332520 0.000000
0.382111 0.331848 0.000000
0.415863 0.330688 0.000000
0.449402 0.328857 0.000000
0.481567 0.326691 0.000000
0.512878 0.324646 0.000000
0.544159 0.322906 0.000000
0.575439 0.321442 0.000000
0.606842 0.320129 0.000000
0.639252 0.318207 0.000000
0.671509 0.316162 0.000000
0.703094 0.313843 0.000000
0.734619 0.311554 0.000000
0.766144 0.309235 0.000000
0.797607 0.306915 0.000000
0.829071 0.304596 0.000000
0.860504 0.302246 0.000000
0.891876 0.299866 0.000000
0.923218 0.297455 0.000000
0.954590 0.295013 0.000000
0.986115 0.292603 0.000000
1.000000 0.290222 0.000000
0.000000 0.366486 0.000000
0.006927 0.366577 0.000000
0.050598 0.366638 0.000000
0.093353 0.366760 0.000000
0.132538 0.366882 0.000000
0.170288 0.366974 0.000000
0.207214 0.367065 0.000000
0.243561 0.367065 0.000000
0.279358 0.366974 0.000000
0.314484 0.366730 0.000000
0.349030 0.366364 0.000000
0.383026 0.365784 0.000000
0.416687 0.364899 0.000000
0.450256 0.363678 0.000000
0.483673 0.361908 0.000000
0.516327 0.359741 0.000000
0.547668 0.357666 0.000000
0.578918 0.355835 0.000000
0.610168 0.354248 0.000000
0.641418 0.352875 0.000000
0.672791 0.351288 0.000000
0.704315 0.349030 0.000000
0.735779 0.346771 0.000000
0.767242 0.344543 0.000000
0.798645 0.342316 0.000000
0.830048 0.340088 0.000000
0.861389 0.337830 0.000000
0.892731 0.335571 0.000000
0.924011 0.333282 0.000000
0.955383 0.330994 0.000000
0.986847 0.328766 0.000000
1.000000 0.326569 0.000000
0.000000 0.399780 0.000000
0.000000 0.399841 0.000000
0.040833 0.399902 0.000000
0.087524 0.399994 0.000000
0.128418 0.400116 0.000000
0.167145 0.400238 0.000000
0.204803 0.400299 0.000000
0.241699 0.400330 0.000000
0.278046 0.400299 0.000000
0.313751 0.400116 0.000000
0.348877 0.399811 0.000000
0.383301 0.399323 0.000000
0.417236 0.398651 0.000000
0.450928 0.397827 0.000000
0.484467 0.396576 0.000000
0.517853 0.394897 0.000000
0.551086 0.392792 0.000000
0.582397 0.390686 0.000000
0.613617 0.388794 0.000000
0.644867 0.387115 0.000000
0.675415 0.385345 0.000000
0.705811 0.383698 0.000000
0.736908 0.381744 0.000000
0.768311 0.379578 0.000000
0.799683 0.377380 0.000000
0.830994 0.375214 0.000000
0.862305 0.373047 0.000000
0.893585 0.370880 0.000000
0.924805 0.368652 0.000000
0.956146 0.366516 0.000000
0.987579 0.364410 0.000000
1.000000 0.362335 0.000000
0.000000 0.432678 0.000000
0.000000 0.432739 0.000000
0.031708 0.432831 0.000000
0.082153 0.432892 0.000000
0.124603 0.433014 0.000000
0.164124 0.433136 0.000000
0.202301 0.433228 0.000000
0.239624 0.433289 0.000000
0.276337 0.433289 0.000000
0.312500 0.433228 0.000000
0.348083 0.433014 0.000000
0.383057 0.432678 0.000000
0.417480 0.432220 0.000000
0.451416 0.431549 0.000000
0.485046 0.430664 0.000000
0.518585 0.429474 0.000000
0.552002 0.427856 0.000000
0.585327 0.425873 0.000000
0.617035 0.423706 0.000000
0.648102 0.421631 0.000000
0.678436 0.419434 0.000000
0.708710 0.417480 0.000000
0.738983 0.415771 0.000000
0.769348 0.414307 0.000000
0.800659 0.412201 0.000000
0.831970 0.410095 0.000000
0.863190 0.407959 0.000000
0.894409 0.405823 0.000000
0.925598 0.403717 0.000000
0.956909 0.401672 0.000000
0.988312 0.399658 0.000000
1.000000 0.397705 0.000000
0.000000 0.465607 0.000000
0.000000 0.465668 0.000000
0.021851 0.465729 0.000000
0.076050 0.465820 0.000000
0.120361 0.465912 0.000000
0.160858 0.466034 0.000000
0.199585 0.466125 0.000000
0.237305 0.466217 0.000000
0.274384 0.466248 0.000000
0.310883 0.466248 0.000000
0.346893 0.466125 0.000000
0.382355 0.465912 0.000000
0.417267 0.465546 0.000000
0.451630 0.465027 0.000000
0.485535 0.464355 0.000000
0.519165 0.463501 0.000000
0.552734 0.462372 0.000000
0.586090 0.460785 0.000000
0.619324 0.458862 0.000000
0.651031 0.456329 0.000000
0.681366 0.453796 0.000000
0.711609 0.451508 0.000000
0.741791 0.449524 0.000000
0.772003 0.447784 0.000000
0.802277 0.446228 0.000000
0.832855 0.444672 0.000000
0.864044 0.442596 0.000000
0.895233 0.440521 0.000000
0.926392 0.438507 0.000000
0.957672 0.436523 0.000000
0.989014 0.434601 0.000000
1.000000 0.432739 0.000000
0.000000 0.498474 0.000000
0.000000 0.498535 0.000000
0.011902 0.498596 0.000000
0.069458 0.498688 0.000000
0.115967 0.498779 0.000000
0.157501 0.498871 0.000000
0.196808 0.498993 0.000000
0.234924 0.499084 0.000000
0.272278 0.499176 0.000000
0.309113 0.499207 0.000000
0.345428 0.499146 0.000000
0.381256 0.499023 0.000000
0.416595 0.498749 0.000000
0.451385 0.498383 0.000000
0.485718 0.497833 0.000000
0.519592 0.497162 0.000000
0.553223 0.496277 0.000000
0.586731 0.495178 0.000000
0.619751 0.493408 0.000000
0.652222 0.491028 0.000000
0.684052 0.488342 0.000000
0.714355 0.485779 0.000000
0.744537 0.483490 0.000000
0.774658 0.481476 0.000000
0.804810 0.479675 0.000000
0.834991 0.478119 0.000000
0.865204 0.476715 0.000000
0.895996 0.474976 0.000000
0.927155 0.473022 0.000000
0.958405 0.471130 0.000000
0.989716 0.469299 0.000000
1.000000 0.467529 0.000000
0.000000 0.531372 0.000000
0.000000 0.531403 0.000000
0.001862 0.531464 0.000000
0.062256 0.531525 0.000000
0.111328 0.531616 0.000000
0.153961 0.531708 0.000000
0.193909 0.531830 0.000000
0.232452 0.531921 0.000000
0.270111 0.532013 0.000000
0.307190 0.532074 0.000000
0.343781 0.532074 0.000000
0.379913 0.532013 0.000000
0.415588 0.531830 0.000000
0.450806 0.531586 0.000000
0.485504 0.531189 0.000000
0.519714 0.530609 0.000000
0.553497 0.529816 0.000000
0.586761 0.528687 0.000000
0.619720 0.527191 0.000000
0.652344 0.525238 0.000000
0.684662 0.522888 0.000000
0.716736 0.520264 0.000000
0.747131 0.517731 0.000000
0.777252 0.515411 0.000000
0.807343 0.513367 0.000000
0.837402 0.511536 0.000000
0.867523 0.509918 0.000000
0.897644 0.508484 0.000000
0.927979 0.507294 0.000000
0.959106 0.505524 0.000000
0.990387 0.503784 0.000000
1.000000 0.502075 0.000000
0.000000 0.563904 0.000000
0.000000 0.563965 0.000000
0.000000 0.563995 0.000000
0.054962 0.564056 0.000000
0.106842 0.564148 0.000000
0.150574 0.564240 0.000000
0.191101 0.564331 0.000000
0.229980 0.564453 0.000000
0.267914 0.564514 0.000000
0.305145 0.564575 0.000000
0.341919 0.564606 0.000000
0.378235 0.564545 0.000000
0.414093 0.564423 0.000000
0.449554 0.564178 0.000000
0.484497 0.563782 0.000000
0.518982 0.563263 0.000000
0.552948 0.562500 0.000000
0.586456 0.561584 0.000000
0.619537 0.560364 0.000000
0.652283 0.558807 0.000000
0.684753 0.556885 0.000000
0.716949 0.554626 0.000000
0.748871 0.552063 0.000000
0.779663 0.549500 0.000000
0.809753 0.547211 0.000000
0.839783 0.545105 0.000000
0.869781 0.543274 0.000000
0.899811 0.541626 0.000000
0.930023 0.540253 0.000000
0.960388 0.539124 0.000000
0.991028 0.537994 0.000000
1.000000 0.536377 0.000000
0.000000 0.596008 0.000000
0.000000 0.596039 0.000000
0.000000 0.596100 0.000000
0.047546 0.596130 0.000000
0.102386 0.596222 0.000000
0.147156 0.596313 0.000000
0.188232 0.596405 0.000000
0.227448 0.596497 0.000000
0.265533 0.596588 0.000000
0.302948 0.596649 0.000000
0.339813 0.596680 0.000000
0.376251 0.596649 0.000000
0.412292 0.596558 0.000000
0.447906 0.596344 0.000000
0.483093 0.596039 0.000000
0.517822 0.595612 0.000000
0.552094 0.595001 0.000000
0.585876 0.594208 0.000000
0.619202 0.593201 0.000000
0.652130 0.591949 0.000000
0.684723 0.590393 0.000000
0.717010 0.588440 0.000000
0.749054 0.586243 0.000000
0.780884 0.583740 0.000000
0.812012 0.581146 0.000000
0.842041 0.578857 0.000000
0.871979 0.576752 0.000000
0.902008 0.574951 0.000000
0.932129 0.573395 0.000000
0.962372 0.572083 0.000000
0.992737 0.570984 0.000000
1.000000 0.570099 0.000000
0.000000 0.627991 0.000000
0.000000 0.628021 0.000000
0.000000 0.628052 0.000000
0.038788 0.628113 0.000000
0.097534 0.628174 0.000000
0.143555 0.628235 0.000000
0.185242 0.628326 0.000000
0.224762 0.628418 0.000000
0.263092 0.628510 0.000000
0.300629 0.628571 0.000000
0.337616 0.628601 0.000000
0.374146 0.628601 0.000000
0.410309 0.628540 0.000000
0.446075 0.628387 0.000000
0.481476 0.628143 0.000000
0.516449 0.627808 0.000000
0.550995 0.627319 0.000000
0.585052 0.626648 0.000000
0.618652 0.625793 0.000000
0.651794 0.624756 0.000000
0.684570 0.623444 0.000000
0.716980 0.621826 0.000000
0.749115 0.619904 0.000000
0.781006 0.617706 0.000000
0.812683 0.615265 0.000000
0.844116 0.612671 0.000000
0.874115 0.610413 0.000000
0.904083 0.608398 0.000000
0.934174 0.606659 0.000000
0.964325 0.605194 0.000000
0.994568 0.603943 0.000000
1.000000 0.602905 0.000000
0.000000 0.659882 0.000000
0.000000 0.659912 0.000000
0.000000 0.659943 0.000000
0.028839 0.660004 0.000000
0.092102 0.660065 0.000000
0.139618 0.660126 0.000000
0.182007 0.660187 0.000000
0.221954 0.660278 0.000000
0.260529 0.660370 0.000000
0.298248 0.660431 0.000000
0.335327 0.660461 0.000000
0.371979 0.660461 0.000000
0.408234 0.660431 0.000000
0.444122 0.660339 0.000000
0.479675 0.660126 0.000000
0.514832 0.659851 0.000000
0.549622 0.659454 0.000000
0.583954 0.658905 0.000000
0.617828 0.658173 0.000000
0.651245 0.657257 0.000000
0.684235 0.656158 0.000000
0.716858 0.654816 0.000000
0.749084 0.653168 0.000000
0.781036 0.651245 0.000000
0.812775 0.649078 0.000000
0.844299 0.646698 0.000000
0.875702 0.644196 0.000000
0.906097 0.641968 0.000000
0.936188 0.640045 0.000000
0.966278 0.638397 0.000000
0.996429 0.636993 0.000000
1.000000 0.635803 0.000000
0.000000 0.691711 0.000000
0.000000 0.691711 0.000000
0.000000 0.691742 0.000000
0.018311 0.691803 0.000000
0.085968 0.691864 0.000000
0.135284 0.691925 0.000000
0.178528 0.691986 0.000000
0.218933 0.692047 0.000000
0.257782 0.692139 0.000000
0.295685 0.692200 0.000000
0.332916 0.692230 0.000000
0.369659 0.692261 0.000000
0.406036 0.692230 0.000000
0.442047 0.692169 0.000000
0.477722 0.692017 0.000000
0.513031 0.691772 0.000000
0.548035 0.691406 0.000000
0.582581 0.690948 0.000000
0.616730 0.690369 0.000000
0.650421 0.689575 0.000000
0.683685 0.688629 0.000000
0.716522 0.687469 0.000000
0.748932 0.686096 0.000000
0.781036 0.684418 0.000000
0.812805 0.682465 0.000000
0.844391 0.680328 0.000000
0.875854 0.678101 0.000000
0.907257 0.675751 0.000000
0.938049 0.673553 0.000000
0.968109 0.671722 0.000000
0.998199 0.670166 0.000000
1.000000 0.668793 0.000000
0.000000 0.723389 0.000000
0.000000 0.723419 0.000000
0.000000 0.723419 0.000000
0.007172 0.723480 0.000000
0.079132 0.723511 0.000000
0.130646 0.723572 0.000000
0.174835 0.723633 0.000000
0.215759 0.723694 0.000000
0.254944 0.723755 0.000000
0.293030 0.723816 0.000000
0.330414 0.723877 0.000000
0.367279 0.723907 0.000000
0.403717 0.723907 0.000000
0.439819 0.723846 0.000000
0.475616 0.723724 0.000000
0.511078 0.723541 0.000000
0.546234 0.723267 0.000000
0.580994 0.722870 0.000000
0.615356 0.722382 0.000000
0.649323 0.721710 0.000000
0.682861 0.720886 0.000000
0.715942 0.719879 0.000000
0.748627 0.718689 0.000000
0.780884 0.717255 0.000000
0.812805 0.715546 0.000000
0.844452 0.713654 0.000000
0.876007 0.711639 0.000000
0.907440 0.709534 0.000000
0.938782 0.707336 0.000000
0.969879 0.705139 0.000000
0.999908 0.703400 0.000000
1.000000 0.701874 0.000000
0.000000 0.755005 0.000000
0.000000 0.755035 0.000000
0.000000 0.755035 0.000000
0.000000 0.755096 0.000000
0.071228 0.755127 0.000000
0.125488 0.755188 0.000000
0.170776 0.755219 0.000000
0.212341 0.755280 0.000000
0.251892 0.755341 0.000000
0.290222 0.755402 0.000000
0.327759 0.755463 0.000000
0.364746 0.755493 0.000000
0.401306 0.755493 0.000000
0.437500 0.755432 0.000000
0.473358 0.755341 0.000000
0.508942 0.755188 0.000000
0.544250 0.754974 0.000000
0.579163 0.754639 0.000000
0.613739 0.754211 0.000000
0.647949 0.753662 0.000000
0.681732 0.752960 0.000000
0.715118 0.752075 0.000000
0.748077 0.751038 0.000000
0.780609 0.749817 0.000000
0.812744 0.748383 0.000000
0.844543 0.746704 0.000000
0.876160 0.744904 0.000000
0.907623 0.742981 0.000000
0.938965 0.740967 0.000000
0.970215 0.738892 0.000000
1.000000 0.736755 0.000000
1.000000 0.735016 0.000000
0.000000 0.786530 0.000000
0.000000 0.786560 0.000000
0.000000 0.786591 0.000000
0.000000 0.786621 0.000000
0.062469 0.786652 0.000000
0.120056 0.786713 0.000000
0.166626 0.786743 0.000000
0.208832 0.786804 0.000000
0.248779 0.786865 0.000000
0.287384 0.786926 0.000000
0.325073 0.786987 0.000000
0.362183 0.787018 0.000000
0.398834 0.787018 0.000000
0.435120 0.786987 0.000000
0.471100 0.786957 0.000000
0.506775 0.786835 0.000000
0.542175 0.786652 0.000000
0.577271 0.786407 0.000000
0.612030 0.786041 0.000000
0.646454 0.785583 0.000000
0.680511 0.784973 0.000000
0.714142 0.784241 0.000000
0.747375 0.783356 0.000000
0.780212 0.782288 0.000000
0.812622 0.781036 0.000000
0.844635 0.779602 0.000000
0.876312 0.777924 0.000000
0.907806 0.776184 0.000000
0.939178 0.774323 0.000000
0.970398 0.772400 0.000000
1.000000 0.770416 0.000000
1.000000 0.768372 0.000000
0.000000 0.818176 0.000000
0.000000 0.818207 0.000000
0.000000 0.818207 0.000000
0.000000 0.818237 0.000000
0.052338 0.818298 0.000000
0.114258 0.818329 0.000000
0.162262 0.818390 0.000000
0.205231 0.818451 0.000000
0.245636 0.818512 0.000000
0.284515 0.818542 0.000000
0.322418 0.818604 0.000000
0.359650 0.818634 0.000000
0.396423 0.818665 0.000000
0.432770 0.818665 0.000000
0.468842 0.818634 0.000000
0.504608 0.818542 0.000000
0.540131 0.818390 0.000000
0.575348 0.818176 0.000000
0.610260 0.817902 0.000000
0.644867 0.817505 0.000000
0.679138 0.817017 0.000000
0.713043 0.816376 0.000000
0.746552 0.815613 0.000000
0.779633 0.814697 0.000000
0.812317 0.813599 0.000000
0.844604 0.812317 0.000000
0.876495 0.810852 0.000000
0.908051 0.809204 0.000000
0.939423 0.807495 0.000000
0.970612 0.805664 0.000000
1.000000 0.803772 0.000000
1.000000 0.801788 0.000000
0.000000 0.849884 0.000000
0.000000 0.849915 0.000000
0.000000 0.849915 0.000000
0.000000 0.849945 0.000000
0.041046 0.849976 0.000000
0.108337 0.850037 0.000000
0.157928 0.850067 0.000000
0.201660 0.850128 0.000000
0.242523 0.850189 0.000000
0.281708 0.850250 0.000000
0.319824 0.850281 0.000000
0.357178 0.850342 0.000000
0.394043 0.850342 0.000000
0.430511 0.850372 0.000000
0.466614 0.850342 0.000000
0.502472 0.850281 0.000000
0.538086 0.850159 0.000000
0.573395 0.849976 0.000000
0.608459 0.849762 0.000000
0.643219 0.849426 0.000000
0.677673 0.848999 0.000000
0.711761 0.848450 0.000000
0.745514 0.847778 0.000000
0.778870 0.846985 0.000000
0.811829 0.846008 0.000000
0.844421 0.844910 0.000000
0.876556 0.843628 0.000000
0.908295 0.842133 0.000000
0.939667 0.840454 0.000000
0.970856 0.838715 0.000000
1.000000 0.836884 0.000000
1.000000 0.834961 0.000000
0.000000 0.881622 0.000000
0.000000 0.881622 0.000000
0.000000 0.881653 0.000000
0.000000 0.881653 0.000000
0.030243 0.881683 0.000000
0.102936 0.881744 0.000000
0.154022 0.881775 0.000000
0.198486 0.881836 0.000000
0.239746 0.881866 0.000000
0.279175 0.881927 0.000000
0.317444 0.881958 0.000000
0.354919 0.882019 0.000000
0.391846 0.882050 0.000000
0.428375 0.882050 0.000000
0.464539 0.882019 0.000000
0.500427 0.881989 0.000000
0.536102 0.881897 0.000000
0.571472 0.881744 0.000000
