public/webgl/lut.CUBE
#Created by: Adobe Photoshop Export Color Lookup Plugin
TITLE "mine.png"
#LUT size
LUT_3D_SIZE 8
#data domain
#LUT data points
DOMAIN_MIN 0.000000 0.000000 0.000000
DOMAIN_MAX 0.903226 0.903226 0.903226
0.000000 0.000000 0.000000
0.129944 0.000671 0.001038
0.261475 0.000000 0.000000
0.396027 0.000000 0.000000
0.529205 0.000000 0.000000
0.660858 0.000000 0.000000
0.790009 0.000000 0.000000
0.917725 0.000000 0.000000
0.008820 0.129364 0.000244
0.136810 0.130402 0.002106
0.268402 0.129150 0.000000
0.401367 0.121338 0.000000
0.533112 0.108582 0.000000
0.663696 0.092194 0.000000
0.791962 0.068420 0.000000
0.919037 0.030914 0.000000
0.002686 0.264832 0.000000
0.142151 0.265381 0.000000
0.278137 0.265381 0.000000
0.411285 0.260559 0.000000
0.538879 0.253693 0.000000
0.668823 0.244995 0.000000
0.795563 0.234711 0.000000
0.921631 0.223541 0.000000
0.000000 0.399780 0.000000
0.128418 0.400116 0.000000
0.278046 0.400299 0.000000
0.417236 0.398651 0.000000
0.551086 0.392792 0.000000
0.675415 0.385345 0.000000
0.799683 0.377380 0.000000
0.924805 0.368652 0.000000
0.000000 0.531372 0.000000
0.111328 0.531616 0.000000
0.270111 0.532013 0.000000
0.415588 0.531830 0.000000
0.553497 0.529816 0.000000
0.684662 0.522888 0.000000
0.807343 0.513367 0.000000
0.927979 0.507294 0.000000
0.000000 0.659882 0.000000
0.092102 0.660065 0.000000
0.260529 0.660370 0.000000
0.408234 0.660431 0.000000
0.549622 0.659454 0.000000
0.684235 0.656158 0.000000
0.812775 0.649078 0.000000
0.936188 0.640045 0.000000
0.000000 0.786530 0.000000
0.062469 0.786652 0.000000
0.248779 0.786865 0.000000
0.398834 0.787018 0.000000
0.542175 0.786652 0.000000
0.680511 0.784973 0.000000
0.812622 0.781036 0.000000
0.939178 0.774323 0.000000
0.000000 0.913239 0.000000
0.023315 0.913330 0.000000
0.237640 0.913483 0.000000
0.389984 0.913635 0.000000
0.534241 0.913483 0.000000
0.674469 0.912628 0.000000
0.810120 0.910309 0.000000
0.939758 0.905762 0.000000
0.000000 0.000000 0.125244
0.129761 0.000000 0.127991
0.266632 0.000000 0.128235
0.401337 0.000000 0.119415
0.533447 0.000000 0.107574
0.664185 0.000000 0.092529
0.792450 0.000000 0.072876
0.919495 0.000000 0.042511
0.000000 0.130035 0.132019
0.137329 0.127869 0.130371
0.270203 0.124603 0.128082
0.404541 0.112396 0.117767
0.536285 0.095612 0.103912
0.666595 0.074799 0.087982
0.794098 0.044861 0.067322
0.920654 0.000549 0.034729
0.000000 0.266846 0.102325
0.124634 0.267090 0.099304
0.282562 0.266541 0.101074
0.412842 0.257721 0.109222
0.540985 0.250214 0.102631
0.670837 0.240570 0.083588
0.797211 0.229767 0.060394
0.923035 0.217651 0.022217
0.000000 0.401917 0.008179
0.092865 0.402252 0.003998
0.271515 0.402588 0.013367
0.420929 0.400391 0.039734
0.555237 0.391022 0.022949
0.675964 0.384186 0.083130
0.800903 0.375397 0.062469
0.925903 0.366119 0.019745
0.000000 0.533020 0.000000
0.069794 0.533295 0.000000
0.259674 0.533752 0.000000
0.413696 0.533691 0.000000
0.556091 0.531189 0.000000
0.688385 0.522247 0.000000
0.808594 0.512299 0.000000
0.928741 0.506256 0.041321
0.000000 0.661041 0.000000
0.040680 0.661194 0.000000
0.248444 0.661530 0.000000
0.403564 0.661682 0.000000
0.548981 0.660706 0.000000
0.685913 0.657074 0.000000
0.815125 0.648895 0.000000
0.937500 0.639221 0.000000
0.000000 0.787354 0.000000
0.000000 0.787445 0.000000
0.234955 0.787689 0.000000
0.392456 0.787903 0.000000
0.539459 0.787567 0.000000
0.680084 0.785858 0.000000
0.813599 0.781647 0.000000
0.940613 0.774261 0.000000
0.000000 0.913788 0.000000
0.000000 0.913879 0.000000
0.221924 0.914032 0.000000
0.382294 0.914215 0.000000
0.530060 0.914093 0.000000
0.672455 0.913239 0.000000
0.809631 0.910858 0.000000
0.940186 0.906097 0.000000
0.000000 0.000000 0.255554
0.126373 0.000000 0.258942
0.266632 0.000000 0.262573
0.407318 0.000000 0.260590
0.539154 0.000000 0.249878
0.668732 0.000000 0.240967
0.795685 0.000000 0.232178
0.922485 0.000000 0.219727
0.000000 0.105804 0.264038
0.114746 0.096954 0.265594
0.275574 0.092804 0.268097
0.411743 0.081116 0.258240
0.540436 0.064087 0.248657
0.669708 0.038025 0.240906
0.796936 0.000000 0.230865
0.923431 0.000000 0.218109
0.000000 0.264496 0.268890
0.088409 0.262878 0.267792
0.273346 0.255859 0.260498
0.408020 0.252411 0.257507
0.541199 0.243683 0.249908
0.672333 0.232574 0.240295
0.799316 0.220001 0.229340
0.925323 0.204712 0.215729
0.000000 0.403564 0.226440
0.000000 0.402588 0.219604
0.246307 0.401917 0.213806
0.424164 0.399048 0.215698
0.552673 0.386810 0.237335
0.676056 0.380768 0.242188
0.802246 0.371094 0.230591
0.927673 0.360504 0.215851
0.000000 0.535004 0.177002
0.000000 0.535126 0.173828
0.227051 0.535522 0.170776
0.405884 0.535767 0.176117
0.560181 0.532318 0.184021
0.694763 0.518707 0.171570
0.808502 0.510559 0.221558
0.930054 0.503693 0.221558
0.000000 0.662964 0.121521
0.000000 0.663116 0.118927
0.211914 0.663483 0.115875
0.389771 0.663788 0.120331
0.546051 0.662903 0.137329
0.689148 0.658478 0.152985
0.820190 0.647583 0.139343
0.939423 0.637299 0.175842
0.000000 0.788971 0.006317
0.000000 0.789124 0.001587
0.192688 0.789398 0.000000
0.374359 0.789673 0.000000
0.531464 0.789490 0.032745
0.678436 0.787720 0.084900
0.815674 0.782837 0.118896
0.943909 0.773804 0.117828
0.000000 0.915009 0.000000
0.000000 0.915100 0.000000
0.172607 0.915283 0.000000
0.360596 0.915527 0.000000
0.518402 0.915527 0.000000
0.666870 0.914703 0.000000
0.808136 0.912201 0.025757
0.941132 0.906891 0.106445
0.000000 0.000000 0.386749
0.113708 0.000000 0.389343
0.257446 0.000000 0.393555
0.402954 0.000000 0.396912
0.543640 0.000000 0.394196
0.675049 0.000000 0.383209
0.800812 0.000000 0.372345
0.926239 0.000000 0.361908
0.000000 0.065643 0.393799
0.079803 0.045715 0.395538
0.253448 0.007111 0.398804
0.409760 0.000000 0.401733
0.548981 0.000000 0.393982
0.676788 0.000000 0.381836
0.801514 0.000000 0.371552
0.926697 0.000000 0.361328
0.000000 0.226105 0.400848
0.000000 0.219269 0.401367
0.235657 0.207001 0.402588
0.418365 0.203979 0.405060
0.551697 0.215057 0.389648
0.676636 0.212708 0.379822
0.801514 0.204437 0.371643
0.927063 0.188416 0.361694
0.000000 0.397949 0.404175
0.000000 0.397064 0.403656
0.213776 0.393097 0.400604
0.408142 0.383942 0.390350
0.542358 0.381744 0.388275
0.673645 0.375214 0.382538
0.801849 0.365631 0.373505
0.928711 0.352783 0.361084
0.000000 0.537170 0.366791
0.000000 0.536377 0.362610
0.153809 0.533752 0.352264
0.382996 0.532043 0.346436
0.561249 0.528076 0.346497
0.686127 0.514160 0.368134
0.804413 0.509491 0.376770
0.930481 0.499878 0.364349
0.000000 0.664215 0.318939
0.000000 0.664093 0.316010
0.115387 0.664032 0.310699
0.358612 0.664337 0.307739
0.536957 0.664032 0.311798
0.692139 0.658600 0.315735
0.826569 0.642975 0.302002
0.938171 0.635803 0.349152
0.000000 0.790680 0.275909
0.000000 0.790802 0.273865
0.056152 0.791077 0.269836
0.335114 0.791504 0.266754
0.513824 0.791656 0.269623
0.673462 0.790070 0.279999
0.818115 0.784088 0.289917
0.948822 0.772125 0.284821
0.000000 0.916626 0.233521
0.000000 0.916718 0.231812
0.000000 0.916962 0.228394
0.314667 0.917297 0.225403
0.494751 0.917480 0.227234
0.655121 0.916901 0.237671
0.804474 0.914307 0.256470
0.942322 0.908051 0.277039
0.000000 0.000000 0.515411
0.099396 0.000000 0.517120
0.245422 0.000000 0.520630
0.389771 0.000000 0.524811
0.535461 0.000000 0.527863
0.676453 0.000000 0.526276
0.806091 0.000000 0.514679
0.931213 0.000000 0.502014
0.000000 0.006317 0.520660
0.039215 0.000000 0.522064
0.233795 0.000000 0.524933
0.389496 0.000000 0.528625
0.540314 0.000000 0.531433
0.681122 0.000000 0.527130
0.807892 0.000000 0.513702
0.931946 0.000000 0.500946
0.000000 0.194489 0.528015
0.000000 0.187805 0.528931
0.207855 0.173615 0.531006
0.385803 0.159668 0.534180
0.548950 0.156677 0.536682
0.687836 0.161926 0.526184
0.809814 0.158752 0.511047
0.932770 0.140289 0.498871
0.000000 0.358734 0.534241
0.000000 0.355194 0.534424
0.154907 0.346008 0.534393
0.371368 0.335358 0.534851
0.555847 0.334106 0.537018
0.686249 0.347473 0.519531
0.807281 0.346649 0.508362
0.931427 0.337158 0.498260
0.000000 0.529022 0.536804
0.000000 0.528503 0.536499
0.119751 0.526581 0.535187
0.357819 0.520935 0.530609
0.541840 0.512390 0.520172
0.671906 0.511414 0.518585
0.801117 0.505493 0.512634
0.929321 0.495148 0.502197
0.000000 0.667297 0.503937
0.000000 0.666840 0.501587
0.000000 0.665253 0.495148
0.308228 0.661560 0.483337
0.513641 0.659790 0.477142
0.690857 0.654449 0.475708
0.814270 0.640778 0.496552
0.930664 0.638062 0.507660
0.000000 0.792419 0.456116
0.000000 0.792236 0.453674
0.000000 0.791748 0.448151
0.268097 0.791443 0.441742
0.482880 0.791748 0.438965
0.662292 0.791199 0.441711
0.819122 0.784454 0.443817
0.953522 0.768219 0.434021
0.000000 0.917725 0.419861
0.000000 0.917755 0.418518
0.000000 0.917877 0.415497
0.243927 0.918121 0.411926
0.461365 0.918518 0.410156
0.637787 0.918457 0.412567
0.797974 0.916321 0.419403
0.942780 0.909210 0.427734
0.000000 0.000000 0.643555
0.075134 0.000000 0.644623
0.233948 0.000000 0.647064
0.375122 0.000000 0.650726
0.521118 0.000000 0.654266
0.665497 0.000000 0.656586
0.804688 0.000000 0.654602
0.934662 0.000000 0.644104
0.000000 0.000000 0.647217
0.000000 0.000000 0.648193
0.213806 0.000000 0.650360
0.371002 0.000000 0.653442
0.521667 0.000000 0.656799
0.668762 0.000000 0.658966
0.808289 0.000000 0.655609
0.936462 0.000000 0.643524
0.000000 0.163757 0.652954
0.000000 0.156555 0.653717
0.181213 0.139008 0.655487
0.360565 0.113007 0.658234
0.521484 0.091644 0.661499
0.675446 0.087494 0.663391
0.815247 0.078186 0.656555
0.939636 0.047607 0.641602
0.000000 0.325287 0.658630
0.000000 0.321442 0.659119
0.101257 0.312286 0.660217
0.337280 0.300171 0.662170
0.516754 0.292236 0.665283
0.683044 0.291748 0.667023
0.820770 0.300201 0.654236
0.941315 0.298737 0.637543
0.000000 0.489655 0.663483
0.000000 0.487640 0.663574
0.000000 0.482239 0.663544
0.301208 0.472260 0.662933
0.500397 0.462311 0.663513
0.686737 0.462219 0.665283
0.815399 0.477448 0.647034
0.935516 0.476868 0.635498
0.000000 0.656464 0.665131
0.000000 0.656250 0.665039
0.000000 0.655579 0.664581
0.291229 0.653687 0.663025
0.494202 0.648865 0.658569
0.669708 0.641724 0.649078
0.798279 0.641113 0.647583
0.927216 0.635315 0.641388
0.000000 0.795837 0.637390
0.000000 0.795624 0.636200
0.000000 0.794830 0.633026
0.231628 0.792725 0.626892
0.454071 0.788544 0.617432
0.642822 0.786896 0.611694
0.815399 0.781616 0.610321
0.939972 0.768677 0.625549
0.000000 0.919678 0.598663
0.000000 0.919495 0.597351
0.000000 0.918976 0.594025
0.161346 0.918091 0.588440
0.422119 0.917511 0.582336
0.614288 0.917786 0.580170
0.787567 0.916992 0.582184
0.941284 0.909698 0.584473
0.000000 0.000000 0.771240
0.021423 0.000000 0.771912
0.218201 0.000000 0.773468
0.362427 0.000000 0.776062
0.504730 0.000000 0.779297
0.650330 0.000000 0.782104
0.793335 0.000000 0.783661
0.931458 0.000000 0.781616
0.000000 0.000000 0.773834
0.000000 0.000000 0.774445
0.186829 0.000000 0.775909
0.351807 0.000000 0.778168
0.502716 0.000000 0.781006
0.650726 0.000000 0.783783
0.795502 0.000000 0.785248
0.934113 0.000000 0.782440
0.000000 0.123413 0.777771
0.000000 0.113800 0.778320
0.142700 0.087677 0.779633
0.335876 0.029419 0.781738
0.496582 0.000000 0.784485
0.650970 0.000000 0.787354
0.800262 0.000000 0.788635
0.940063 0.000000 0.783905
0.000000 0.295319 0.782440
0.000000 0.291260 0.782898
0.000000 0.281433 0.783966
0.302582 0.266235 0.785828
0.482513 0.250092 0.788513
0.648804 0.240967 0.791595
0.806641 0.241119 0.792725
0.947601 0.240723 0.784363
0.000000 0.453888 0.786743
0.000000 0.451233 0.787018
0.000000 0.444366 0.787598
0.241333 0.432739 0.788666
0.455109 0.420959 0.790680
0.640564 0.416107 0.793945
0.811951 0.417664 0.795166
0.950592 0.430145 0.781281
0.000000 0.618805 0.790955
0.000000 0.617584 0.791046
0.000000 0.614532 0.791138
0.197174 0.609528 0.790802
0.436676 0.602417 0.789703
0.628632 0.596375 0.790131
0.811676 0.597321 0.791840
0.941101 0.609955 0.774933
0.000000 0.783173 0.791779
0.000000 0.783142 0.791779
0.000000 0.783020 0.791656
0.208313 0.782532 0.791199
0.443207 0.781128 0.789764
0.628296 0.777618 0.786102
0.795959 0.771881 0.778168
0.924011 0.771484 0.776703
0.000000 0.922363 0.770264
0.000000 0.922272 0.769653
0.000000 0.921997 0.768005
0.139557 0.921082 0.764893
0.411346 0.918945 0.759857
0.599182 0.914978 0.753296
0.772552 0.913513 0.749481
0.935791 0.908539 0.749451
0.000000 0.000000 0.900726
0.000000 0.000000 0.901093
0.195129 0.000000 0.902039
0.347931 0.000000 0.903656
0.489685 0.000000 0.906006
0.633942 0.000000 0.908508
0.779053 0.000000 0.910614
0.921539 0.000000 0.911438
0.000000 0.000000 0.902466
0.000000 0.000000 0.902832
0.147766 0.000000 0.903717
0.329163 0.000000 0.905273
0.483490 0.000000 0.907257
0.632294 0.000000 0.909576
0.779114 0.000000 0.911713
0.922943 0.000000 0.912476
0.000000 0.047119 0.904938
0.000000 0.024658 0.905273
0.065979 0.000000 0.906128
0.307159 0.000000 0.907562
0.472504 0.000000 0.909546
0.627502 0.000000 0.911957
0.778870 0.000000 0.914215
0.926208 0.000000 0.914856
0.000000 0.262787 0.908173
0.000000 0.258148 0.908478
0.000000 0.246521 0.909271
0.260010 0.226837 0.910614
0.449799 0.200958 0.912628
0.616821 0.175690 0.915192
0.776978 0.162903 0.917755
0.931091 0.164612 0.918274
0.000000 0.420532 0.911407
0.000000 0.417328 0.911652
0.000000 0.409149 0.912292
0.157318 0.396423 0.913452
0.410217 0.382141 0.915222
0.598450 0.371490 0.917816
0.772156 0.368988 0.920715
0.935883 0.371948 0.921143
0.000000 0.582001 0.914490
0.000000 0.580292 0.914612
0.000000 0.576111 0.914856
0.000000 0.569550 0.915161
0.374023 0.560944 0.915710
0.579773 0.554535 0.917358
0.765198 0.553650 0.920441
0.937988 0.556000 0.921234
0.000000 0.749603 0.917175
0.000000 0.749054 0.917206
0.000000 0.747681 0.917206
0.000000 0.745178 0.917084
0.374115 0.741425 0.916504
0.574951 0.736694 0.915314
0.757965 0.733704 0.915680
0.934631 0.736206 0.917114
0.000000 0.908752 0.916718
0.000000 0.908783 0.916718
0.000000 0.908844 0.916718
0.099518 0.908875 0.916595
0.401001 0.908722 0.916168
0.595612 0.908051 0.915070
0.771362 0.906067 0.912567
0.919617 0.904083 0.908295
